!!!!SEGMENT: pl-kozmzk--mzk-m-346--024_walczynski-franciszek--cantantibus-organis-moderato.krn
!!!cenid: 18xx:2819
!!!COM: Walczyński, Franciszek
!!!COM-rismID: pe30021989
!!!CDT: ~1852-1937
!!!CNT: Polish
!!!GTL: Cantantibus organis op. 10
!!!OTL: 24. Moderato
!!!PDT: 1898
!!!AGN: Secular
!!!SMS-siglum: PL-KOZmzk
!!!SMS-shelfmark: mzk/m/346
!!!SMS-shelfwork: 024 G
!!!SMS-variant:
!!!SMS-altvar:
!!!NIFC-rismSourceID: 1001109273
!!!NIFC-islandoraID: pl-kozmzk:7453
!!!URL-pdf-islandora: https://repozytorium.nifc.pl/islandora/object/pl-kozmzk%3A7453/datastream/PDF/view
!!!URL-scan: https://polish.musicsources.pl/pl/lokalizacje/galeria/druki-muzyczne/7581 @EN{Scan on Polish Music Sources Website} @PL{Skany w portalu Dziedzictwo Muzyki Polskiej w otwartym dostępie}
!!!ONB-nifc:
!!!AIN: 1 organ
!!!key:
**kern	**kern	**dynam
*part1	*part1	*part1
*staff2	*staff1	*
*Iorgan	*Iorgan	*
*I"Organo	*I"Organo	*
*clefF4	*clefG2	*
*k[f#c#g#]	*k[f#c#g#]	*
*A:	*A:	*
*M6/8	*M6/8	*
=1	=1	=1
*^	*^	*
!	!	!LO:TX:a:B:t=Moderato.	!	!
!	!	!	!	!LO:DY:b=2
2.rA	(8AA\L	2.rdd	2.rg	p
.	8BB\	.	.	.
.	8C#\J	.	.	.
.	4FF#\	.	.	.
.	8GG#\	.	.	.
=2	=2	=2	=2	=2
2.rA	8AA\L	2.rdd	2.rg	.
.	8BB\	.	.	.
.	8C#\J	.	.	.
.	4E\	.	.	.
.	8D\)	.	.	.
=3	=3	=3	=3	=3
(8A/L	(8C#\L	2.rdd	2.rg	.
8B/	8BB\	.	.	.
8c#/J	8AA\J	.	.	.
4F#/	4.D\	.	.	.
8G#/	.	.	.	.
=4	=4	=4	=4	=4
8A/L	8C#\L	2.rdd	2.rg	.
8B/	8E\	.	.	.
8c#/J	8A\J	.	.	.
4e/	4.G#\	.	.	.
8d/)	.	.	.	.
=5	=5	=5	=5	=5
(4c#/	4A\	2.rdd	2.rg	.
8d#X/	8F#\	.	.	.
4B/	4.D#X\)	.	.	.
8A/)	.	.	.	.
=6	=6	=6	=6	=6
(4.G#/	(4.E\	2.rff	(8e\L	.
.	.	.	8f#\	.
.	.	.	8g#\J	.
4.A/	4.F#\	.	4c#\	.
.	.	.	8d#X\	.
=7	=7	=7	=7	=7
[4.B/	4.G#\	2.rff	8e\L	.
.	.	.	8f#\	.
.	.	.	8g#\J	.
4.B/])	4.D#X\	.	4b\	.
.	.	.	8a\)	.
=8	=8	=8	=8	=8
(4B/	2.E\)	2.rff	(4g#\	.
8dn/	.	.	8f#\	.
4c#/	.	.	4e\	.
8B/)	.	.	8dn\)	.
=9	=9	=9	=9	=9
!	!	!	!	!LO:DY:a:t=pf
(4.c#/	(4.A\	(8a/L	[2.e\	fp
.	.	8b/	.	.
.	.	8cc#/J	.	.
4.d/	4.B\	4f#/	.	.
.	.	8g#/	.	.
=10	=10	=10	=10	=10
!!LO:LB:g=original
4.c#/	4.A\	8a/L	2.e\]	.
.	.	8b/	.	.
.	.	8cc#/J	.	.
4.B/)	4.G#X\)	4ee/	.	.
.	.	8dd/)	.	.
=11	=11	=11	=11	=11
(4.c#/	(8A\	(8cc#/L	4.e\	.
.	4Gn\	8b/	.	.
.	.	8a/J	.	.
4d/	4F#\	8dd/L	[4.a\	.
.	.	8a/	.	.
8d#X/	8Fn\	8b/J	.	.
=12	=12	=12	=12	=12
8e/L	4.E\	4cc#/	4a\]	.
8d#X/	.	.	.	.
8dn/J	.	8b/	8g#\	.
4.c#/)	4.A\)	4.a/)	4.a\	.
=13	=13	=13	=13	=13
!	!	!	!	!LO:DY:a
2.rF	2.rBB	(8a/L	2.r	p
.	.	8b/	.	.
.	.	8cc#/J	.	.
.	.	4f#/	.	.
.	.	8g#/	.	.
=14	=14	=14	=14	=14
(8c#/L	2.r	8a/L	2.r	.
8B/	.	8b/	.	.
8A/J	.	8cc#/J	.	.
4.G#/	.	4ee/	.	.
.	.	8dd/)	.	.
=15	=15	=15	=15	=15
8A/L	2.r	(8cc#/L	2.r	.
8B/	.	8b/	.	.
8c#/J	.	8a/J	.	.
4.d#X/)	.	4b/	.	.
.	.	8a/)	.	.
=16	=16	=16	=16	=16
4e/	4r	4.g#/	4r	.
8dn/	8r	.	8r	.
4c#/	4r	4a/	4r	.
!LO:TX:b:i:t=Ped.	!	!	!LO:TX:t=P:problem=drugie f u dołu systemu	!LO:DY:a
8d/	8D\	8b/	8f#\	f
=17	=17	=17	=17	=17
8c#/L	([4.E\	8a/L	[2.e\	.
8B/	.	8g#/	.	.
8A/J	.	8f#/J	.	.
4.B/	4E\]	4.g#/	.	.
.	8D\	.	.	.
=18	=18	=18	=18	=18
!	!	!	!	!LO:HP:a
4A/	4C#\	4a/	2.e\]	<
8G#X/	8BB\	8b/	.	.
4.A/	4.AA\)	4.cc#/	.	[[
=19	=19	=19	=19	=19
!!LO:LB:g=original
!	!	!	!	!LO:DY:a
(4.gn/	2.r	(8ee/L	[2.a\	pp
.	.	8dd/	.	.
.	.	8cc#/J	.	.
4.f#/	.	[4.dd/	.	.
=20	=20	=20	=20	=20
4.fn/	2.r	8dd/L]	(2.a\]	.
.	.	8a/	.	.
.	.	8b/J	.	.
4.e/	.	4.cc#/)	.	.
=21	=21	=21	=21	=21
4.d/)	2.r	4cc#/	4.g#\)	.
.	.	8b/	.	<
4.c#/	.	4.ee/	4.a\	[[
=22	=22	=22	=22	=22
!	!	!	!	!LO:DY:a
(8d/L	2.r	8ffn/L	[4.a\	f
8fn/	.	8dd/	.	.
8e/J	.	8ccn/J	.	.
4d/	.	4b^/	4.a\]	.
8d#X/)	.	8b/	.	.
=23	=23	=23	=23	=23
(4.e/	4r	([4.cc#X/	(4a\	p
.	8r	.	8f#\	.
!LO:TX:b:i:t=Ped.	!	!	!	!
4e/	(4.E\	4cc#/]	4.g#\	.
8dn/	.	8b/	.	.
=24	=24	=24	=24	=24
4.c#/)	4.F#\)	4.a/)	4.a\)	.
!	!	!	!	!LO:DY:t=pf
(8B/L	4r	4r	4ryy	fp
8c#/	.	.	.	.
8d/J	8r	8r	8ryy	.
=25	=25	=25	=25	=25
4e/	2.r	2.rdd	2.rg	.
8A/	.	.	.	.
4c#/	.	.	.	.
8B/)	.	.	.	.
=26	=26	=26	=26	=26
!LO:TX:b:i:t=Ped.	!	!	!	!
(8A/L	[2.AA\	(8a/L	(8c#\L	pp
8G#/	.	8b/	8d\	.
8Gn/J	.	8cc#/J	8e\J	.
4F#/	.	8dd/L	4.d\	.
.	.	8a/	.	.
8Fn/	.	8b/J	.	.
=27	=27	=27	=27	=27
!LO:TX:a:i:t=rall.	!	!	!	!
4.E/	2.AA\_	[4.cc#/	4.c#\	.
4F#X/	.	4cc#/]	4.d\	>
8G#X/	.	8b/	.	.
=28	=28	=28	=28	=28
2.A/)	2.AA;\]	2.a;/)	2.c#\)	]
*v	*v	*	*	*
*	*v	*v	*
==	==	==
*-	*-	*-
!!!system-decoration: {(s1,s2)}
!!!ENC: Kamil Watkowski
!!!END: 2021-08-09
